icons/toggle.svg

<svg xmlns="http://www.w3.org/2000/svg" width="96" height="96"><path d="M28 20h40c7.4 0 14.5 3 19.8 8.2C93 33.5 96 40.6 96 48s-3 14.5-8.2 19.8C82.5 73 75.4 76 68 76H28c-7.4 0-14.5-3-19.8-8.2C3 62.5 0 55.4 0 48s3-14.5 8.2-19.8C13.5 23 20.6 20 28 20zm0 8h40c5.3 0 10.4 2.1 14.1 5.9C85.9 37.6 88 42.7 88 48c0 5.3-2.1 10.4-5.9 14.1C78.4 65.9 73.3 68 68 68H28c-5.3 0-10.4-2.1-14.1-5.9C10.1 58.4 8 53.3 8 48c0-5.3 2.1-10.4 5.9-14.1C17.6 30.1 22.7 28 28 28zM12 48c0-4.2 1.7-8.3 4.7-11.3S23.8 32 28 32c4.2 0 8.3 1.7 11.3 4.7S44 43.8 44 48c0 4.2-1.7 8.3-4.7 11.3S32.2 64 28 64c-4.2 0-8.3-1.7-11.3-4.7S12 52.2 12 48zm8 0c0-2.1.8-4.2 2.3-5.7 1.5-1.5 3.6-2.3 5.7-2.3s4.2.8 5.7 2.3c1.5 1.5 2.3 3.6 2.3 5.7s-.8 4.2-2.3 5.7C32.2 55.2 30.1 56 28 56s-4.2-.8-5.7-2.3C20.8 52.2 20 50.1 20 48z" fill-rule="evenodd" fill="#454545"/></svg>

<?xml version="1.0" standalone="no"?><!-- Generator: Gravit.io --><svg xmlns="http://www.w3.org/2000/svg" xmlns:xlink="http://www.w3.org/1999/xlink" width="96" height="96"><path d=" M 28 20 L 68 20 C 75.4 20 82.5 23 87.8 28.2 C 93 33.5 96 40.6 96 48 C 96 55.4 93 62.5 87.8 67.8 C 82.5 73 75.4 76 68 76 L 28 76 C 20.6 76 13.5 73 8.2 67.8 C 3 62.5 0 55.4 0 48 C 0 40.6 3 33.5 8.2 28.2 C 13.5 23 20.6 20 28 20 Z  M 28 28 L 68 28 C 73.3 28 78.4 30.1 82.1 33.9 C 85.9 37.6 88 42.7 88 48 C 88 53.3 85.9 58.4 82.1 62.1 C 78.4 65.9 73.3 68 68 68 L 28 68 C 22.7 68 17.6 65.9 13.9 62.1 C 10.1 58.4 8 53.3 8 48 C 8 42.7 10.1 37.6 13.9 33.9 C 17.6 30.1 22.7 28 28 28 Z  M 12 48 C 12 43.8 13.7 39.7 16.7 36.7 C 19.7 33.7 23.8 32 28 32 C 32.2 32 36.3 33.7 39.3 36.7 C 42.3 39.7 44 43.8 44 48 C 44 52.2 42.3 56.3 39.3 59.3 C 36.3 62.3 32.2 64 28 64 C 23.8 64 19.7 62.3 16.7 59.3 C 13.7 56.3 12 52.2 12 48 Z  M 20 48 C 20 45.9 20.8 43.8 22.3 42.3 C 23.8 40.8 25.9 40 28 40 C 30.1 40 32.2 40.8 33.7 42.3 C 35.2 43.8 36 45.9 36 48 C 36 50.1 35.2 52.2 33.7 53.7 C 32.2 55.2 30.1 56 28 56 C 25.9 56 23.8 55.2 22.3 53.7 C 20.8 52.2 20 50.1 20 48 Z " fill-rule="evenodd" fill="#454545" stroke="none"/><mask id="_mask_nNZtGc3TRBTJghmN6JIeNZFaVmEmfUo0"><path d=" M 28 20 L 68 20 C 75.4 20 82.5 23 87.8 28.2 C 93 33.5 96 40.6 96 48 C 96 55.4 93 62.5 87.8 67.8 C 82.5 73 75.4 76 68 76 L 28 76 C 20.6 76 13.5 73 8.2 67.8 C 3 62.5 0 55.4 0 48 C 0 40.6 3 33.5 8.2 28.2 C 13.5 23 20.6 20 28 20 Z  M 28 28 L 68 28 C 73.3 28 78.4 30.1 82.1 33.9 C 85.9 37.6 88 42.7 88 48 C 88 53.3 85.9 58.4 82.1 62.1 C 78.4 65.9 73.3 68 68 68 L 28 68 C 22.7 68 17.6 65.9 13.9 62.1 C 10.1 58.4 8 53.3 8 48 C 8 42.7 10.1 37.6 13.9 33.9 C 17.6 30.1 22.7 28 28 28 Z  M 12 48 C 12 43.8 13.7 39.7 16.7 36.7 C 19.7 33.7 23.8 32 28 32 C 32.2 32 36.3 33.7 39.3 36.7 C 42.3 39.7 44 43.8 44 48 C 44 52.2 42.3 56.3 39.3 59.3 C 36.3 62.3 32.2 64 28 64 C 23.8 64 19.7 62.3 16.7 59.3 C 13.7 56.3 12 52.2 12 48 Z  M 20 48 C 20 45.9 20.8 43.8 22.3 42.3 C 23.8 40.8 25.9 40 28 40 C 30.1 40 32.2 40.8 33.7 42.3 C 35.2 43.8 36 45.9 36 48 C 36 50.1 35.2 52.2 33.7 53.7 C 32.2 55.2 30.1 56 28 56 C 25.9 56 23.8 55.2 22.3 53.7 C 20.8 52.2 20 50.1 20 48 Z " fill-rule="evenodd" fill="white" stroke="none"/></mask><path d=" M 28 20 L 68 20 C 75.4 20 82.5 23 87.8 28.2 C 93 33.5 96 40.6 96 48 C 96 55.4 93 62.5 87.8 67.8 C 82.5 73 75.4 76 68 76 L 28 76 C 20.6 76 13.5 73 8.2 67.8 C 3 62.5 0 55.4 0 48 C 0 40.6 3 33.5 8.2 28.2 C 13.5 23 20.6 20 28 20 Z  M 28 28 L 68 28 C 73.3 28 78.4 30.1 82.1 33.9 C 85.9 37.6 88 42.7 88 48 C 88 53.3 85.9 58.4 82.1 62.1 C 78.4 65.9 73.3 68 68 68 L 28 68 C 22.7 68 17.6 65.9 13.9 62.1 C 10.1 58.4 8 53.3 8 48 C 8 42.7 10.1 37.6 13.9 33.9 C 17.6 30.1 22.7 28 28 28 Z  M 12 48 C 12 43.8 13.7 39.7 16.7 36.7 C 19.7 33.7 23.8 32 28 32 C 32.2 32 36.3 33.7 39.3 36.7 C 42.3 39.7 44 43.8 44 48 C 44 52.2 42.3 56.3 39.3 59.3 C 36.3 62.3 32.2 64 28 64 C 23.8 64 19.7 62.3 16.7 59.3 C 13.7 56.3 12 52.2 12 48 Z  M 20 48 C 20 45.9 20.8 43.8 22.3 42.3 C 23.8 40.8 25.9 40 28 40 C 30.1 40 32.2 40.8 33.7 42.3 C 35.2 43.8 36 45.9 36 48 C 36 50.1 35.2 52.2 33.7 53.7 C 32.2 55.2 30.1 56 28 56 C 25.9 56 23.8 55.2 22.3 53.7 C 20.8 52.2 20 50.1 20 48 Z " fill-rule="evenodd" fill="none" stroke="none" stroke-width="16" mask="url(#_mask_nNZtGc3TRBTJghmN6JIeNZFaVmEmfUo0)"/></svg>
